icons/nextjs/nextjs-plain.svg

<?xml version="1.0" encoding="UTF-8" standalone="no"?>
<!-- Generator: Adobe Illustrator 26.5.0, SVG Export Plug-In . SVG Version: 6.00 Build 0)  -->

<svg
   version="1.0"
   id="katman_1"
   x="0px"
   y="0px"
   viewBox="0 0 128 128"
   xml:space="preserve"
   sodipodi:docname="nextjs-plain.svg"
   inkscape:version="1.3 (0e150ed6c4, 2023-07-21)"
   width="128"
   height="128"
   xmlns:inkscape="http://www.inkscape.org/namespaces/inkscape"
   xmlns:sodipodi="http://sodipodi.sourceforge.net/DTD/sodipodi-0.dtd"
   xmlns="http://www.w3.org/2000/svg"
   xmlns:svg="http://www.w3.org/2000/svg"><defs
   id="defs5">&#10;		&#10;		&#10;			<linearGradient
   id="SVGID_1_"
   gradientUnits="userSpaceOnUse"
   x1="-371.15039"
   y1="574.36682"
   x2="-370.87439"
   y2="573.96979"
   gradientTransform="matrix(67.9168,0,0,-78.8231,25273.701,45364.152)">&#10;			<stop
   offset="0"
   style="stop-color:#FFFFFF"
   id="stop1" />&#10;			<stop
   offset="1"
   style="stop-color:#FFFFFF;stop-opacity:0"
   id="stop2" />&#10;		</linearGradient>&#10;		&#10;		&#10;			<linearGradient
   id="SVGID_00000141450593947928411570000005336396235809311886_"
   gradientUnits="userSpaceOnUse"
   x1="-347.13641"
   y1="574.02881"
   x2="-347.1369"
   y2="573.29437"
   gradientTransform="matrix(8.53335,0,0,-55.829934,3048.2779,32086.374)">&#10;			<stop
   offset="0"
   style="stop-color:#FFFFFF"
   id="stop3" />&#10;			<stop
   offset="1"
   style="stop-color:#FFFFFF;stop-opacity:0"
   id="stop4" />&#10;		</linearGradient>&#10;		&#10;			&#10;	<mask
   maskUnits="userSpaceOnUse"
   id="mask6"><g
     id="g8"><g
       class="st0"
       id="g7">&#10;			<circle
   id="circle6"
   class="st1"
   cx="220"
   cy="156"
   r="128" />&#10;		</g></g></mask><mask
   maskUnits="userSpaceOnUse"
   id="mask8"><g
     id="g10"><g
       class="st0"
       id="g9">&#10;			<circle
   id="circle8"
   class="st1"
   cx="220"
   cy="156"
   r="128" />&#10;		</g></g></mask><mask
   maskUnits="userSpaceOnUse"
   id="mask10"><g
     id="g12"><g
       class="st0"
       id="g11">&#10;			<circle
   id="circle10"
   class="st1"
   cx="220"
   cy="156"
   r="128" />&#10;		</g></g></mask>&#10;	<defs
   id="defs1">&#10;		<filter
   id="Adobe_OpacityMaskFilter"
   filterUnits="userSpaceOnUse"
   x="92"
   y="28"
   width="256"
   height="256">&#10;			<feColorMatrix
   type="matrix"
   values="1 0 0 0 0  0 1 0 0 0  0 0 1 0 0  0 0 0 1 0"
   id="feColorMatrix1" />&#10;		</filter>&#10;	</defs>&#10;	&#10;		&#10;	&#10;		&#10;	&#10;</defs><sodipodi:namedview
   id="namedview5"
   pagecolor="#ffffff"
   bordercolor="#000000"
   borderopacity="0.25"
   inkscape:showpageshadow="2"
   inkscape:pageopacity="0.0"
   inkscape:pagecheckerboard="0"
   inkscape:deskcolor="#d1d1d1"
   inkscape:zoom="2.2909091"
   inkscape:cx="38.194445"
   inkscape:cy="53.472222"
   inkscape:window-width="1366"
   inkscape:window-height="697"
   inkscape:window-x="-8"
   inkscape:window-y="-8"
   inkscape:window-maximized="1"
   inkscape:current-layer="katman_1" />&#10;<style
   type="text/css"
   id="style1">&#10;	.st0{filter:url(#Adobe_OpacityMaskFilter);}&#10;	.st1{fill:#FFFFFF;}&#10;	.st2{mask:url(#mask-2_00000011712862621112014060000004681409511743882135_);}&#10;	.st3{fill:url(#SVGID_1_);}&#10;	.st4{fill:url(#SVGID_00000030487188734980939430000014510370791660140472_);}&#10;</style>&#10;<path
   id="path12"
   style="display:inline;stroke-width:0.5"
   d="M 64 0 A 64 64 0 0 0 0 64 A 64 64 0 0 0 64 128 A 64 64 0 0 0 99.505859 117.16211 L 47.015625 49.339844 L 47.015625 89.580078 L 38.400391 89.580078 L 38.400391 38.400391 L 49.169922 38.400391 L 81.78125 80.410156 L 81.78125 38.400391 L 90.316406 38.400391 L 90.316406 91.404297 L 106.29297 111.98438 A 64 64 0 0 0 128 64 A 64 64 0 0 0 64 0 z M 105.94531 112.33203 C 105.91775 112.35598 105.88894 112.37844 105.86133 112.40234 A 64 64 0 0 0 105.94531 112.33203 z " />&#10;</svg>

<svg xmlns="http://www.w3.org/2000/svg" viewBox="0 0 128 128"><path d="M64 0A64 64 0 0 0 0 64a64 64 0 0 0 64 64 64 64 0 0 0 35.506-10.838L47.016 49.34v40.24H38.4V38.4h10.77l32.61 42.01V38.4h8.535v53.004l15.977 20.58A64 64 0 0 0 128 64 64 64 0 0 0 64 0zm41.945 112.332c-.027.024-.056.046-.084.07a64 64 0 0 0 .084-.07z"/></svg>
